X:260
T: WENN I MORGENS FRUEH AUFSTEH
N: Z0258
O: Europa, Mitteleuropa, Deutschland, Bayern
N:  Modulation in T9
R: lyrisches Lied, Romanze
M: 3/4
L: 1/8
K: F
 | DD^FDGE | A2d^FA2 |
E2AGFE | D2^FDF2 |
D2FDFD | A2d^FA2 |
F2AGFE | D2z2
(3AGF | E2z2(3BAG | F2z2
(3AGF | G2z2(3BAG | A2z2
cc | cfc2A2 | F2z2
AF | Cc=Bc_BG | F2z4

@@@ Tune index: 10018
